static/assets/design/headerLinks/mastodon.svg

<svg fill="none" height="248" viewBox="0 0 231 248" width="231" xmlns="http://www.w3.org/2000/svg" xmlns:xlink="http://www.w3.org/1999/xlink"><clipPath id="a"><path d="m0 0h230.842v247.477h-230.842z"/></clipPath><g clip-path="url(#a)"><path clip-rule="evenodd" d="m164.528 188.625c31.008-3.702 58.007-22.808 61.4-40.265 5.347-27.5 4.905-67.1093 4.905-67.1093 0-53.6854-35.173-69.4214-35.173-69.4214-17.735-8.1453-48.188-11.570633-79.827-11.8293h-.777c-31.6388.258667-62.0722 3.684-79.8082 11.8293 0 0-35.174632 15.736-35.174632 69.4214 0 3.2546-.0168217 6.6778-.0343336 10.2414-.04863424 9.8969-.102592 20.8779.1836666 32.3389 1.277329 52.501 9.625339 104.244 58.166699 117.092 22.3813 5.924 41.5973 7.164 57.0738 6.313 28.065-1.556 43.82-10.016 43.82-10.016l-.926-20.363s-20.056 6.324-42.58 5.554c-22.3158-.766-45.8745-2.407-49.4838-29.806-.3334-2.406-.5-4.98-.5-7.682 0 0 21.9066 5.354 49.6698 6.626 16.976.779 32.896-.994 49.065-2.924zm24.816-38.206v-65.0035c0-13.2854-3.383-23.8427-10.176-31.6534-7.008-7.8106-16.184-11.8147-27.574-11.8147-13.179 0-23.16 5.0654-29.757 15.1974l-6.416 10.7533-6.415-10.7533c-6.598-10.132-16.5782-15.1974-29.7568-15.1974-11.3907 0-20.5667 4.0041-27.5734 11.8147-6.7946 7.8107-10.1773 18.368-10.1773 31.6534v65.0035h25.7533v-63.0929c0-13.3 5.596-20.0506 16.7894-20.0506 12.376 0 18.5798 8.0079 18.5798 23.8426v34.5349h25.601v-34.5349c0-15.8347 6.203-23.8426 18.579-23.8426 11.193 0 16.789 6.7506 16.789 20.0506v63.0929z" fill="#505050" fill-rule="evenodd"/></g></svg>

<svg width="231" height="248" viewBox="0 0 231 248" fill="none" xmlns="http://www.w3.org/2000/svg">
<g clip-path="url(#clip0_501_12)">
<path fill-rule="evenodd" clip-rule="evenodd" d="M164.528 188.625C195.536 184.923 222.535 165.817 225.928 148.36C231.275 120.86 230.833 81.2507 230.833 81.2507C230.833 27.5653 195.66 11.8293 195.66 11.8293C177.925 3.684 147.472 0.258667 115.833 0H115.056C83.4172 0.258667 52.9838 3.684 35.2478 11.8293C35.2478 11.8293 0.073168 27.5653 0.073168 81.2507C0.073168 84.5053 0.0563463 87.9285 0.0388344 91.4921C-0.00979984 101.389 -0.0637576 112.37 0.222501 123.831C1.49983 176.332 9.84784 228.075 58.3892 240.923C80.7705 246.847 99.9865 248.087 115.463 247.236C143.528 245.68 159.283 237.22 159.283 237.22L158.357 216.857C158.357 216.857 138.301 223.181 115.777 222.411C93.4612 221.645 69.9025 220.004 66.2932 192.605C65.9598 190.199 65.7932 187.625 65.7932 184.923C65.7932 184.923 87.6998 190.277 115.463 191.549C132.439 192.328 148.359 190.555 164.528 188.625ZM189.344 150.419V85.4155C189.344 72.1301 185.961 61.5728 179.168 53.7621C172.16 45.9515 162.984 41.9474 151.594 41.9474C138.415 41.9474 128.434 47.0128 121.837 57.1448L115.421 67.8981L109.006 57.1448C102.408 47.0128 92.4278 41.9474 79.2492 41.9474C67.8585 41.9474 58.6825 45.9515 51.6758 53.7621C44.8812 61.5728 41.4985 72.1301 41.4985 85.4155V150.419H67.2518V87.3261C67.2518 74.0261 72.8478 67.2755 84.0412 67.2755C96.4172 67.2755 102.621 75.2834 102.621 91.1181V125.653H128.222V91.1181C128.222 75.2834 134.425 67.2755 146.801 67.2755C157.994 67.2755 163.59 74.0261 163.59 87.3261V150.419H189.344Z" fill="#505050"/>
</g>
<defs>
<clipPath id="clip0_501_12">
<rect width="230.842" height="247.477" fill="white"/>
</clipPath>
</defs>
</svg>
